X: 28884
T: Mystery Inch, The
R: jig
M: 6/8
K: Gmajor
|:GBg fdB|def dBA|GAB dBG|ABG ABd|
efg fdB|dBe dBA|GAB dgf|1 efd edB:|2 efd BAG||
|:EGB AGD|BAG EGB|ABd edB|A3 BGE|
cGB AGE|dGB AGE|GBd eBG|B3 dBA|
GEB cBA|GEB AFD|EGB dBe|edA BGE|
GEB c3|GEB D3|DEG AFD|E3 E3||

